src/img/logo-3.svg

<svg width="75" height="67" viewBox="0 0 75 67" fill="none" xmlns="http://www.w3.org/2000/svg">
<path d="M48.5312 50.729H0V53.7605H50.3542L48.5312 50.729Z" fill="#F7AB2B"/>
<path d="M60.6094 50.6665L62.4507 53.7603H74.5246L74.4343 50.6665H60.6094Z" fill="#F7AB2B"/>
<path d="M10.6357 56.7915V60.0902H54.128L52.2341 56.8874L10.6357 56.7915Z" fill="#F7AB2B"/>
<path d="M16.7889 47.6252L41.7604 6.06393L38.8099 4.2915L14.8019 44.5397L6.43652 44.5356V47.6252H16.7889Z" fill="#F7AB2B"/>
<path d="M24.7472 47.6253L52.5081 1.77L49.5566 0L20.7329 47.6253H24.7472Z" fill="#F7AB2B"/>
<path d="M39.6948 29.2627L62.1624 66.6121H66.286L41.6981 25.9138L39.6948 29.2627Z" fill="#F7AB2B"/>
<path d="M39.7814 36.1036L37.6957 32.6047L28.7007 47.6253H32.8887L39.7814 36.1036Z" fill="#F7AB2B"/>
<path d="M51.4553 16.5885L48.3671 14.7659L43.7075 22.5545L58.7531 47.6253H69.66V44.5931H60.8242L47.8056 22.6899L51.4553 16.5885Z" fill="#F7AB2B"/>
</svg>

<svg width="75" height="67" fill="none" xmlns="http://www.w3.org/2000/svg"><path d="M48.531 50.729H0v3.032h50.354l-1.823-3.032ZM60.61 50.666l1.84 3.094h12.075l-.09-3.093H60.608ZM10.636 56.791v3.3h43.492l-1.894-3.204-41.598-.096ZM16.789 47.625 41.76 6.064l-2.95-1.772L14.802 44.54l-8.365-.004v3.09h10.352ZM24.747 47.625 52.508 1.77 49.557 0 20.733 47.625h4.014ZM39.695 29.263l22.467 37.35h4.124l-24.588-40.7-2.003 3.35ZM39.781 36.104l-2.085-3.5L28.7 47.626h4.188l6.892-11.521ZM51.455 16.588l-3.088-1.822-4.66 7.789 15.046 25.07H69.66v-3.032h-8.836L47.806 22.69l3.65-6.102Z" fill="#F7AB2B"/></svg>
